actions/48/mail-mark-important.svg

<?xml version="1.0" encoding="UTF-8" standalone="no"?>
<!-- Created with Inkscape (http://www.inkscape.org/) -->

<svg
   xmlns:dc="http://purl.org/dc/elements/1.1/"
   xmlns:cc="http://creativecommons.org/ns#"
   xmlns:rdf="http://www.w3.org/1999/02/22-rdf-syntax-ns#"
   xmlns:svg="http://www.w3.org/2000/svg"
   xmlns="http://www.w3.org/2000/svg"
   xmlns:xlink="http://www.w3.org/1999/xlink"
   xmlns:inkscape="http://www.inkscape.org/namespaces/inkscape"
   version="1.0"
   width="48"
   height="48"
   id="svg3314">
  <metadata
     id="metadata49">
    <rdf:RDF>
      <cc:Work
         rdf:about="">
        <dc:format>image/svg+xml</dc:format>
        <dc:type
           rdf:resource="http://purl.org/dc/dcmitype/StillImage" />
      </cc:Work>
    </rdf:RDF>
  </metadata>
  <defs
     id="defs3316">
    <linearGradient
       id="linearGradient3215">
      <stop
         id="stop3217"
         style="stop-color:#e78780;stop-opacity:1"
         offset="0" />
      <stop
         id="stop3219"
         style="stop-color:#d35b54;stop-opacity:0"
         offset="1" />
    </linearGradient>
    <radialGradient
       cx="605.71429"
       cy="486.64789"
       r="117.14286"
       fx="605.71429"
       fy="486.64789"
       id="radialGradient2506"
       xlink:href="#linearGradient5060-6"
       gradientUnits="userSpaceOnUse"
       gradientTransform="matrix(-0.06553443,0,0,0.02470588,-21.829255,10.577352)" />
    <linearGradient
       id="linearGradient5060-6">
      <stop
         id="stop5062-3"
         style="stop-color:#000000;stop-opacity:1"
         offset="0" />
      <stop
         id="stop5064-1"
         style="stop-color:#000000;stop-opacity:0"
         offset="1" />
    </linearGradient>
    <radialGradient
       cx="605.71429"
       cy="486.64789"
       r="117.14286"
       fx="605.71429"
       fy="486.64789"
       id="radialGradient2504"
       xlink:href="#linearGradient5060-6"
       gradientUnits="userSpaceOnUse"
       gradientTransform="matrix(0.06553443,0,0,0.02470588,-69.175497,10.577352)" />
    <linearGradient
       id="linearGradient5048-7">
      <stop
         id="stop5050-5"
         style="stop-color:#000000;stop-opacity:0"
         offset="0" />
      <stop
         id="stop5056-9"
         style="stop-color:#000000;stop-opacity:1"
         offset="0.5" />
      <stop
         id="stop5052-6"
         style="stop-color:#000000;stop-opacity:0"
         offset="1" />
    </linearGradient>
    <linearGradient
       x1="302.85715"
       y1="366.64789"
       x2="302.85715"
       y2="609.50507"
       id="linearGradient2501"
       xlink:href="#linearGradient5048-7"
       gradientUnits="userSpaceOnUse"
       gradientTransform="matrix(0.06553443,0,0,0.02470588,-69.188394,10.577352)" />
    <linearGradient
       id="linearGradient2490">
      <stop
         id="stop2492"
         style="stop-color:#791235;stop-opacity:1"
         offset="0" />
      <stop
         id="stop2494"
         style="stop-color:#dd3b27;stop-opacity:1"
         offset="1" />
    </linearGradient>
    <linearGradient
       id="linearGradient3242">
      <stop
         id="stop3244"
         style="stop-color:#f89b7e;stop-opacity:1"
         offset="0" />
      <stop
         id="stop3246"
         style="stop-color:#e35d4f;stop-opacity:1"
         offset="0.11961333" />
      <stop
         id="stop3248"
         style="stop-color:#c6262e;stop-opacity:1"
         offset="0.81107038" />
      <stop
         id="stop3250"
         style="stop-color:#690b2c;stop-opacity:1"
         offset="1" />
    </linearGradient>
    <linearGradient
       id="linearGradient3333">
      <stop
         id="stop3335"
         style="stop-color:#ffffff;stop-opacity:1"
         offset="0" />
      <stop
         id="stop3337"
         style="stop-color:#ffffff;stop-opacity:0"
         offset="1" />
    </linearGradient>
    <linearGradient
       id="linearGradient8265-821-176-38-919-66-249-7-7">
      <stop
         id="stop2687-1-9"
         style="stop-color:#ffffff;stop-opacity:1"
         offset="0" />
      <stop
         id="stop2689-5-4"
         style="stop-color:#ffffff;stop-opacity:0"
         offset="1" />
    </linearGradient>
    <linearGradient
       x1="16.626165"
       y1="15.298182"
       x2="20.054544"
       y2="24.627615"
       id="linearGradient2428"
       xlink:href="#linearGradient8265-821-176-38-919-66-249-7-7"
       gradientUnits="userSpaceOnUse"
       gradientTransform="matrix(0.9986003,0,0,1.0843613,-0.01298513,3.8058986)" />
    <linearGradient
       x1="25.525208"
       y1="30.188753"
       x2="25.525208"
       y2="15.737678"
       id="linearGradient2431"
       xlink:href="#linearGradient3215"
       gradientUnits="userSpaceOnUse"
       gradientTransform="translate(0,-2.6324579)"
       spreadMethod="reflect" />
    <linearGradient
       x1="25.57654"
       y1="15.000002"
       x2="25.57654"
       y2="44.00053"
       id="linearGradient2434"
       xlink:href="#linearGradient3333"
       gradientUnits="userSpaceOnUse"
       gradientTransform="matrix(0.9999999,0,0,1.1071427,7.4171649e-7,-5.6607243)" />
    <linearGradient
       x1="20.052792"
       y1="8.163353"
       x2="20.052792"
       y2="48.072277"
       id="linearGradient2437"
       xlink:href="#linearGradient3242"
       gradientUnits="userSpaceOnUse"
       gradientTransform="translate(0,-0.9999999)" />
    <linearGradient
       x1="28.103424"
       y1="45.000065"
       x2="28.103424"
       y2="14.038458"
       id="linearGradient2439"
       xlink:href="#linearGradient2490"
       gradientUnits="userSpaceOnUse"
       gradientTransform="matrix(0.9999999,0,0,1.1014118,-2.709852e-7,-5.5128101)" />
  </defs>
  <g
     transform="matrix(1.0008068,0,0,1.0008068,69.539093,20.343603)"
     id="g3511"
     style="stroke-width:1.03041875;stroke-miterlimit:4;stroke-dasharray:none">
    <rect
       width="31.643764"
       height="6.0000005"
       x="-61.324265"
       y="19.635714"
       id="rect2512"
       style="opacity:0.40206185;fill:url(#linearGradient2501);fill-opacity:1;fill-rule:nonzero;stroke:none;stroke-width:1.03041875;marker:none;visibility:visible;display:inline;overflow:visible" />
    <path
       d="m -29.680498,19.635919 c 0,0 0,5.999669 0,5.999669 3.374861,0.01129 8.158771,-1.344221 8.158769,-3.000221 0,-1.655999 -3.76609,-2.999448 -8.158769,-2.999448 z"
       inkscape:connector-curvature="0"
       id="path2514"
       style="opacity:0.40206185;fill:url(#radialGradient2504);fill-opacity:1;fill-rule:nonzero;stroke:none;stroke-width:1.03041875;marker:none;visibility:visible;display:inline;overflow:visible" />
    <path
       d="m -61.324263,19.635919 c 0,0 0,5.999669 0,5.999669 -3.374861,0.01129 -8.158771,-1.344221 -8.158771,-3.000221 0,-1.655999 3.766091,-2.999448 8.158771,-2.999448 z"
       inkscape:connector-curvature="0"
       id="path2516"
       style="opacity:0.40206185;fill:url(#radialGradient2506);fill-opacity:1;fill-rule:nonzero;stroke:none;stroke-width:1.03041875;marker:none;visibility:visible;display:inline;overflow:visible" />
  </g>
  <rect
     width="45"
     height="33"
     rx="0.99999994"
     ry="1"
     x="1.5"
     y="10.500003"
     id="rect2396"
     style="fill:url(#linearGradient2437);fill-opacity:1;fill-rule:evenodd;stroke:url(#linearGradient2439);stroke-width:1;stroke-linecap:square;stroke-linejoin:round;stroke-miterlimit:4;stroke-opacity:1;stroke-dasharray:none;stroke-dashoffset:0;marker:none;visibility:visible;display:inline;overflow:visible;enable-background:accumulate" />
  <rect
     width="43.000004"
     height="30.999998"
     rx="0.082551509"
     ry="0.083472483"
     x="2.5000002"
     y="11.5"
     id="rect3331"
     style="opacity:0.4;fill:none;stroke:url(#linearGradient2434);stroke-width:1;stroke-linecap:square;stroke-linejoin:miter;stroke-miterlimit:4;stroke-opacity:1;stroke-dasharray:none;stroke-dashoffset:0;marker:none;visibility:visible;display:inline;overflow:visible;enable-background:accumulate" />
  <path
     d="M 3.236705,13.730544 24,32.367542 45.077092,13.60522 M 18.65625,27.867542 5.1806904,41.5 18.65625,27.867542 z M 29.375,27.930042 42.94431,41.249352 29.375,27.930042 z"
     inkscape:connector-curvature="0"
     id="path3341"
     style="fill:none;stroke:url(#linearGradient2431);stroke-width:1;stroke-linecap:butt;stroke-linejoin:miter;stroke-miterlimit:4;stroke-opacity:1;stroke-dasharray:none;stroke-dashoffset:0;marker:none;visibility:visible;display:inline;overflow:visible;enable-background:accumulate" />
  <path
     d="m 2.4745419,10 c -0.8221285,0 -1.4730211,0.760388 -1.4730211,1.5 l 0.0153,18.5 C 2.3400497,29.979857 45.994386,22.627577 46.998751,22.273924 l 0,-10.773924 c 0,-0.565337 -0.642963,-1.5 -1.354833,-1.5 L 2.4745419,10 z"
     inkscape:connector-curvature="0"
     id="path3333"
     style="opacity:0.2;fill:url(#linearGradient2428);fill-opacity:1;fill-rule:evenodd;stroke:none" />
  <g
     transform="translate(51.075104,1.5686179)"
     id="g3243">
    <path
       d="m -29.450843,12.554367 c 0.562985,5.499325 1.207856,10.960802 1.687101,16.481667 0.482028,0 1.047391,0 1.529419,0 0.39752,-5.301782 1.038697,-10.571527 1.501221,-15.866736 0.235772,-1.253831 -0.407984,-2.74252 -1.731999,-3.047145 -1.308328,-0.3825154 -2.770054,0.564714 -2.944023,1.917755 -0.02885,0.169852 -0.04172,0.342238 -0.04172,0.514459 l -10e-7,0 z m -0.166856,22.358706 c -0.05953,1.636939 1.741632,2.920137 3.279478,2.401164 1.489513,-0.380147 2.274063,-2.252289 1.510684,-3.583058 -0.683355,-1.375642 -2.687256,-1.828891 -3.840007,-0.776055 -0.582694,0.478722 -0.968913,1.193389 -0.950154,1.95795 l -1e-6,-1e-6 z"
       inkscape:connector-curvature="0"
       id="path3295"
       style="font-size:62.4582634px;font-style:normal;font-variant:normal;font-weight:normal;font-stretch:normal;text-align:start;line-height:125%;writing-mode:lr-tb;text-anchor:start;opacity:0.2;fill:#000000;fill-opacity:1;stroke:none;font-family:Georgia" />
    <path
       d="m -29.450843,13.554676 c 0.562985,5.499325 1.207856,10.960802 1.687101,16.481667 0.482028,0 1.047391,0 1.529419,0 0.39752,-5.301782 1.038697,-10.571527 1.501221,-15.866736 0.235772,-1.253831 -0.407984,-2.74252 -1.731999,-3.047145 -1.308328,-0.382515 -2.770054,0.564714 -2.944023,1.917755 -0.02885,0.169852 -0.04172,0.342238 -0.04172,0.514459 l -10e-7,0 z m -0.166856,22.358706 c -0.05953,1.636939 1.741632,2.920137 3.279478,2.401164 1.489513,-0.380147 2.274063,-2.252289 1.510684,-3.583058 -0.683355,-1.375642 -2.687256,-1.828891 -3.840007,-0.776055 -0.582694,0.478722 -0.968913,1.193389 -0.950154,1.95795 l -1e-6,-1e-6 z"
       inkscape:connector-curvature="0"
       id="text2315"
       style="font-size:62.4582634px;font-style:normal;font-variant:normal;font-weight:normal;font-stretch:normal;text-align:start;line-height:125%;writing-mode:lr-tb;text-anchor:start;fill:#ffffff;fill-opacity:1;stroke:none;font-family:Georgia" />
  </g>
</svg>

<?xml version="1.0" encoding="UTF-8" standalone="no"?>
<!-- Created with Inkscape (http://www.inkscape.org/) -->
<svg
   xmlns:dc="http://purl.org/dc/elements/1.1/"
   xmlns:cc="http://creativecommons.org/ns#"
   xmlns:rdf="http://www.w3.org/1999/02/22-rdf-syntax-ns#"
   xmlns:svg="http://www.w3.org/2000/svg"
   xmlns="http://www.w3.org/2000/svg"
   xmlns:xlink="http://www.w3.org/1999/xlink"
   xmlns:sodipodi="http://sodipodi.sourceforge.net/DTD/sodipodi-0.dtd"
   xmlns:inkscape="http://www.inkscape.org/namespaces/inkscape"
   version="1.0"
   width="48"
   height="48"
   id="svg3314"
   sodipodi:version="0.32"
   inkscape:version="0.46"
   sodipodi:docname="mail-mark-important.svg"
   inkscape:output_extension="org.inkscape.output.svg.inkscape">
  <metadata
     id="metadata49">
    <rdf:RDF>
      <cc:Work
         rdf:about="">
        <dc:format>image/svg+xml</dc:format>
        <dc:type
           rdf:resource="http://purl.org/dc/dcmitype/StillImage" />
      </cc:Work>
    </rdf:RDF>
  </metadata>
  <sodipodi:namedview
     inkscape:window-height="709"
     inkscape:window-width="757"
     inkscape:pageshadow="2"
     inkscape:pageopacity="0.0"
     guidetolerance="10.0"
     gridtolerance="10.0"
     objecttolerance="10.0"
     borderopacity="1.0"
     bordercolor="#666666"
     pagecolor="#ffffff"
     id="base"
     showgrid="false"
     inkscape:zoom="3.6681164"
     inkscape:cx="25.829602"
     inkscape:cy="24"
     inkscape:window-x="399"
     inkscape:window-y="52"
     inkscape:current-layer="svg3314" />
  <defs
     id="defs3316">
    <linearGradient
       id="linearGradient3215">
      <stop
         offset="0"
         style="stop-color:#e78780;stop-opacity:1"
         id="stop3217" />
      <stop
         offset="1"
         style="stop-color:#d35b54;stop-opacity:0"
         id="stop3219" />
    </linearGradient>
    <radialGradient
       cx="605.71429"
       cy="486.64789"
       r="117.14286"
       fx="605.71429"
       fy="486.64789"
       id="radialGradient2506"
       xlink:href="#linearGradient5060-6"
       gradientUnits="userSpaceOnUse"
       gradientTransform="matrix(-6.553443e-2,0,0,2.470588e-2,-21.829255,10.577352)" />
    <linearGradient
       id="linearGradient5060-6">
      <stop
         id="stop5062-3"
         style="stop-color:#000000;stop-opacity:1"
         offset="0" />
      <stop
         id="stop5064-1"
         style="stop-color:#000000;stop-opacity:0"
         offset="1" />
    </linearGradient>
    <radialGradient
       cx="605.71429"
       cy="486.64789"
       r="117.14286"
       fx="605.71429"
       fy="486.64789"
       id="radialGradient2504"
       xlink:href="#linearGradient5060-6"
       gradientUnits="userSpaceOnUse"
       gradientTransform="matrix(6.553443e-2,0,0,2.470588e-2,-69.175497,10.577352)" />
    <linearGradient
       id="linearGradient5048-7">
      <stop
         id="stop5050-5"
         style="stop-color:#000000;stop-opacity:0"
         offset="0" />
      <stop
         id="stop5056-9"
         style="stop-color:#000000;stop-opacity:1"
         offset="0.5" />
      <stop
         id="stop5052-6"
         style="stop-color:#000000;stop-opacity:0"
         offset="1" />
    </linearGradient>
    <linearGradient
       x1="302.85715"
       y1="366.64789"
       x2="302.85715"
       y2="609.50507"
       id="linearGradient2501"
       xlink:href="#linearGradient5048-7"
       gradientUnits="userSpaceOnUse"
       gradientTransform="matrix(6.553443e-2,0,0,2.470588e-2,-69.188394,10.577352)" />
    <linearGradient
       id="linearGradient2490">
      <stop
         id="stop2492"
         style="stop-color:#791235;stop-opacity:1"
         offset="0" />
      <stop
         id="stop2494"
         style="stop-color:#dd3b27;stop-opacity:1"
         offset="1" />
    </linearGradient>
    <linearGradient
       id="linearGradient3242">
      <stop
         id="stop3244"
         style="stop-color:#f89b7e;stop-opacity:1"
         offset="0" />
      <stop
         id="stop3246"
         style="stop-color:#e35d4f;stop-opacity:1"
         offset="0.11961333" />
      <stop
         id="stop3248"
         style="stop-color:#c6262e;stop-opacity:1"
         offset="0.81107038" />
      <stop
         id="stop3250"
         style="stop-color:#690b2c;stop-opacity:1"
         offset="1" />
    </linearGradient>
    <linearGradient
       id="linearGradient3333">
      <stop
         id="stop3335"
         style="stop-color:#ffffff;stop-opacity:1"
         offset="0" />
      <stop
         id="stop3337"
         style="stop-color:#ffffff;stop-opacity:0"
         offset="1" />
    </linearGradient>
    <linearGradient
       id="linearGradient8265-821-176-38-919-66-249-7-7">
      <stop
         id="stop2687-1-9"
         style="stop-color:#ffffff;stop-opacity:1"
         offset="0" />
      <stop
         id="stop2689-5-4"
         style="stop-color:#ffffff;stop-opacity:0"
         offset="1" />
    </linearGradient>
    <linearGradient
       inkscape:collect="always"
       xlink:href="#linearGradient8265-821-176-38-919-66-249-7-7"
       id="linearGradient2428"
       gradientUnits="userSpaceOnUse"
       gradientTransform="matrix(0.9986003,0,0,1.0843613,-1.298513e-2,3.8058986)"
       x1="16.626165"
       y1="15.298182"
       x2="20.054544"
       y2="24.627615" />
    <linearGradient
       inkscape:collect="always"
       xlink:href="#linearGradient3215"
       id="linearGradient2431"
       gradientUnits="userSpaceOnUse"
       gradientTransform="translate(0,-2.6324579)"
       spreadMethod="reflect"
       x1="25.525208"
       y1="30.188753"
       x2="25.525208"
       y2="15.737678" />
    <linearGradient
       inkscape:collect="always"
       xlink:href="#linearGradient3333"
       id="linearGradient2434"
       gradientUnits="userSpaceOnUse"
       gradientTransform="matrix(0.9999999,0,0,1.1071427,7.4171649e-7,-5.6607243)"
       x1="25.57654"
       y1="15.000002"
       x2="25.57654"
       y2="44.00053" />
    <linearGradient
       inkscape:collect="always"
       xlink:href="#linearGradient3242"
       id="linearGradient2437"
       gradientUnits="userSpaceOnUse"
       gradientTransform="translate(0,-0.9999999)"
       x1="20.052792"
       y1="8.163353"
       x2="20.052792"
       y2="48.072277" />
    <linearGradient
       inkscape:collect="always"
       xlink:href="#linearGradient2490"
       id="linearGradient2439"
       gradientUnits="userSpaceOnUse"
       gradientTransform="matrix(0.9999999,0,0,1.1014118,-2.709852e-7,-5.5128101)"
       x1="28.103424"
       y1="45.000065"
       x2="28.103424"
       y2="14.038458" />
  </defs>
  <g
     style="stroke-width:1.03041875;stroke-miterlimit:4;stroke-dasharray:none"
     id="g3511"
     transform="matrix(1.0008068,0,0,1.0008068,69.539093,20.343603)">
    <rect
       style="opacity:0.40206185;fill:url(#linearGradient2501);fill-opacity:1;fill-rule:nonzero;stroke:none;stroke-width:1.03041875;marker:none;stroke-miterlimit:4;stroke-dasharray:none;visibility:visible;display:inline;overflow:visible"
       id="rect2512"
       y="19.635714"
       x="-61.324265"
       height="6.0000005"
       width="31.643764" />
    <path
       style="opacity:0.40206185;fill:url(#radialGradient2504);fill-opacity:1;fill-rule:nonzero;stroke:none;stroke-width:1.03041875;marker:none;stroke-miterlimit:4;stroke-dasharray:none;visibility:visible;display:inline;overflow:visible"
       id="path2514"
       d="M -29.680498,19.635919 C -29.680498,19.635919 -29.680498,25.635588 -29.680498,25.635588 C -26.305637,25.646878 -21.521727,24.291367 -21.521729,22.635367 C -21.521729,20.979368 -25.287819,19.635919 -29.680498,19.635919 z" />
    <path
       style="opacity:0.40206185;fill:url(#radialGradient2506);fill-opacity:1;fill-rule:nonzero;stroke:none;stroke-width:1.03041875;marker:none;stroke-miterlimit:4;stroke-dasharray:none;visibility:visible;display:inline;overflow:visible"
       id="path2516"
       d="M -61.324263,19.635919 C -61.324263,19.635919 -61.324263,25.635588 -61.324263,25.635588 C -64.699124,25.646878 -69.483034,24.291367 -69.483034,22.635367 C -69.483034,20.979368 -65.716943,19.635919 -61.324263,19.635919 z" />
  </g>
  <rect
     style="fill:url(#linearGradient2437);fill-opacity:1;fill-rule:evenodd;stroke:url(#linearGradient2439);stroke-width:1;stroke-linecap:square;stroke-linejoin:round;marker:none;marker-start:none;marker-mid:none;marker-end:none;stroke-miterlimit:4;stroke-dasharray:none;stroke-dashoffset:0;stroke-opacity:1;visibility:visible;display:inline;overflow:visible;enable-background:accumulate"
     id="rect2396"
     y="10.500003"
     x="1.5"
     ry="1"
     rx="0.99999994"
     height="33"
     width="45" />
  <rect
     style="opacity:0.4;fill:none;fill-opacity:1;fill-rule:evenodd;stroke:url(#linearGradient2434);stroke-width:1;stroke-linecap:square;stroke-linejoin:miter;marker:none;marker-start:none;marker-mid:none;marker-end:none;stroke-miterlimit:4;stroke-dasharray:none;stroke-dashoffset:0;stroke-opacity:1;visibility:visible;display:inline;overflow:visible;enable-background:accumulate"
     id="rect3331"
     y="11.5"
     x="2.5000002"
     ry="0.083472483"
     rx="0.082551509"
     height="30.999998"
     width="43.000004" />
  <path
     style="opacity:1;fill:none;fill-opacity:1;fill-rule:evenodd;stroke:url(#linearGradient2431);stroke-width:1;stroke-linecap:butt;stroke-linejoin:miter;marker:none;marker-start:none;marker-mid:none;marker-end:none;stroke-miterlimit:4;stroke-dasharray:none;stroke-dashoffset:0;stroke-opacity:1;visibility:visible;display:inline;overflow:visible;enable-background:accumulate"
     id="path3341"
     d="M 3.236705,13.730544 L 24,32.367542 L 45.077092,13.60522 M 18.65625,27.867542 L 5.1806904,41.5 L 18.65625,27.867542 z M 29.375,27.930042 L 42.94431,41.249352 L 29.375,27.930042 z" />
  <path
     style="opacity:0.2;fill:url(#linearGradient2428);fill-opacity:1;fill-rule:evenodd;stroke:none;stroke-width:1;stroke-miterlimit:4;stroke-dasharray:none"
     id="path3333"
     d="M 2.4745419,10 C 1.6524134,10 1.0015208,10.760388 1.0015208,11.5 L 1.0168213,30 C 2.3400497,29.979857 45.994386,22.627577 46.998751,22.273924 L 46.998751,11.5 C 46.998751,10.934663 46.355788,10 45.643918,10 L 2.4745419,10 z" />
  <g
     id="g3243"
     transform="translate(51.075104,1.5686179)">
    <path
       style="font-size:62.4582634px;font-style:normal;font-variant:normal;font-weight:normal;font-stretch:normal;text-align:start;line-height:125%;writing-mode:lr-tb;text-anchor:start;opacity:0.2;fill:#000000;fill-opacity:1;stroke:none;stroke-width:0.5;stroke-linecap:round;stroke-linejoin:round;stroke-miterlimit:4;stroke-dasharray:none;stroke-opacity:1;font-family:Georgia"
       id="path3295"
       d="M -29.450843,12.554367 C -28.887858,18.053692 -28.242987,23.515169 -27.763742,29.036034 C -27.281714,29.036034 -26.716351,29.036034 -26.234323,29.036034 C -25.836803,23.734252 -25.195626,18.464507 -24.733102,13.169298 C -24.49733,11.915467 -25.141086,10.426778 -26.465101,10.122153 C -27.773429,9.7396376 -29.235155,10.686867 -29.409124,12.039908 C -29.437976,12.20976 -29.450848,12.382146 -29.450842,12.554367 L -29.450843,12.554367 z M -29.617699,34.913073 C -29.677232,36.550012 -27.876067,37.83321 -26.338221,37.314237 C -24.848708,36.93409 -24.064158,35.061948 -24.827537,33.731179 C -25.510892,32.355537 -27.514793,31.902288 -28.667544,32.955124 C -29.250238,33.433846 -29.636457,34.148513 -29.617698,34.913074 L -29.617699,34.913073 z" />
    <path
       style="font-size:62.4582634px;font-style:normal;font-variant:normal;font-weight:normal;font-stretch:normal;text-align:start;line-height:125%;writing-mode:lr-tb;text-anchor:start;fill:#ffffff;fill-opacity:1;stroke:none;stroke-width:0.5;stroke-linecap:round;stroke-linejoin:round;stroke-miterlimit:4;stroke-dasharray:none;stroke-opacity:1;font-family:Georgia"
       id="text2315"
       d="M -29.450843,13.554676 C -28.887858,19.054001 -28.242987,24.515478 -27.763742,30.036343 C -27.281714,30.036343 -26.716351,30.036343 -26.234323,30.036343 C -25.836803,24.734561 -25.195626,19.464816 -24.733102,14.169607 C -24.49733,12.915776 -25.141086,11.427087 -26.465101,11.122462 C -27.773429,10.739947 -29.235155,11.687176 -29.409124,13.040217 C -29.437976,13.210069 -29.450848,13.382455 -29.450842,13.554676 L -29.450843,13.554676 z M -29.617699,35.913382 C -29.677232,37.550321 -27.876067,38.833519 -26.338221,38.314546 C -24.848708,37.934399 -24.064158,36.062257 -24.827537,34.731488 C -25.510892,33.355846 -27.514793,32.902597 -28.667544,33.955433 C -29.250238,34.434155 -29.636457,35.148822 -29.617698,35.913383 L -29.617699,35.913382 z" />
  </g>
</svg>
